www/assets/icons/wrong_location.svg

<svg width="24" height="24" viewBox="0 0 24 24" xmlns="http://www.w3.org/2000/svg" fill='currentColor'><path d="M12.73 9.76998V3.02998C12.08 2.85998 11.41 2.76998 10.73 2.76998C6.52998 2.76998 2.72998 5.98998 2.72998 10.97C2.72998 14.29 5.39998 18.22 10.73 22.77C16.06 18.22 18.73 14.29 18.73 10.97C18.73 10.56 18.69 10.16 18.64 9.76998H12.73ZM10.73 12.77C9.62998 12.77 8.72998 11.87 8.72998 10.77C8.72998 9.66998 9.62998 8.76998 10.73 8.76998C11.83 8.76998 12.73 9.66998 12.73 10.77C12.73 11.87 11.83 12.77 10.73 12.77Z"/><path d="M21.27 2.64998L19.85 1.22998L17.73 3.35998L15.61 1.22998L14.19 2.64998L16.32 4.76998L14.19 6.88998L15.61 8.30998L17.73 6.17998L19.85 8.30998L21.27 6.88998L19.14 4.76998L21.27 2.64998Z"/></svg>

<svg xmlns="http://www.w3.org/2000/svg" width="24" height="24" viewBox="0 0 24 24" fill='currentColor'><path d="M12.73 9.77V3.03c-.65-.17-1.32-.26-2-.26-4.2 0-8 3.22-8 8.2 0 3.32 2.67 7.25 8 11.8 5.33-4.55 8-8.48 8-11.8 0-.41-.04-.81-.09-1.2zm-2 3c-1.1 0-2-.9-2-2s.9-2 2-2 2 .9 2 2-.9 2-2 2"/><path d="m21.27 2.65-1.42-1.42-2.12 2.13-2.12-2.13-1.42 1.42 2.13 2.12-2.13 2.12 1.42 1.42 2.12-2.13 2.12 2.13 1.42-1.42-2.13-2.12z"/></svg>
